X: 40436
T: Tom Mhick's
R: polka
M: 2/4
K: Gmajor
|:D|G>A Bd|ed Bc/B/|dc A2|ed B/c/B/A/|
G>A Bd|ed B2|dc A>B|AG G:|
|:d|g>f ed|ed B2|dc A2|ed Bd|
g>f ed|ed B2|dc A>B|AG G:|

